public/company/str-logo-white.svg

<?xml version="1.0" encoding="UTF-8"?>
<svg width="190px" height="40px" viewBox="0 0 190 40" version="1.1" xmlns="http://www.w3.org/2000/svg" xmlns:xlink="http://www.w3.org/1999/xlink">
    <title>STROEER-white-cmyk</title>
    <defs>
        <polygon id="path-1" points="0 0 38.0652765 0 38.0652765 40 0 40"></polygon>
    </defs>
    <g id="Symbols" stroke="none" stroke-width="1" fill="none" fill-rule="evenodd">
        <g id="components/desktop/header" transform="translate(0.000000, -5.000000)">
            <g id="STROEER-white-cmyk" transform="translate(0.000000, 5.000000)">
                <g id="Group-3" transform="translate(91.452481, 0.000000)">
                    <mask id="mask-2" fill="white">
                        <use xlink:href="#path-1"></use>
                    </mask>
                    <g id="Clip-2"></g>
                    <path d="M10.8916141,0 L8.67231051,5.75783069 L8.14883002,6.07239962 C6.16223864,7.3633515 2.0397688,10.6904666 0.547385936,17.0042796 C0.0497623578,19.0950657 0,20.9376105 0,21.684285 C0,29.6450736 4.37225736,36.0486241 11.8814947,38.7334333 C15.221915,39.929283 18.1139861,40.0292622 19.4619606,40.0292622 C30.2652709,40.0292622 38.0652765,32.3289074 38.0652765,21.5326091 C38.0652765,19.2374752 37.7159643,17.3939549 37.5183784,16.6053379 C36.0289228,10.8957899 31.9054772,7.56672397 30.2657587,6.47377983 L29.0602412,5.71247424 L31.2590544,0 L22.7292008,0 L21.4587971,3.29541437 C20.5938103,3.21152932 19.7293113,3.16617287 18.8599336,3.18811954 L18.1993627,3.19104576 L19.4219555,0 L10.8916141,0 Z M16.1059286,15.1261324 C17.3714537,14.4935806 18.4774465,14.4409086 19.0048299,14.4409086 C21.8564081,14.3877489 24.1737728,16.0752039 25.1719472,18.7014887 C25.3895355,19.1906556 25.697867,20.181182 25.697867,21.6335638 C25.697867,25.7107673 23.1834043,27.6074472 21.8037186,28.2439007 C21.2612113,28.515064 20.3640253,28.8267067 18.957019,28.8267067 C14.8799207,28.8267067 12.4191233,25.5327554 12.3674095,21.7364693 C12.3674095,17.7685114 14.725755,15.8162332 16.1059286,15.1261324 L16.1059286,15.1261324 Z" id="Fill-1" fill="#000" mask="url(#mask-2)"></path>
                </g>
                <path d="M172.461819,4 L158,4 L158,39.0746796 L169.65854,39.0746796 L169.65854,25.1136716 L176.723331,39.0746796 L189.890841,39.0746796 L181.338058,24.9244425 C182.531867,24.4903861 183.411977,24.1524074 184.470159,23.4291427 C186.027428,22.3098626 188.086712,20.1190973 188.086712,15.5819891 C188.086712,11.9793214 186.707026,9.86658863 185.823012,8.736579 C183.318795,5.44799249 179.673946,4.35017131 175.622217,4.09997927 C174.569402,4 173.513659,4 172.461819,4 Z M169.65854,19.6455369 L169.65854,13.0825073 L171.653913,13.0825073 C173.752226,13.0825073 175.972017,13.4941293 175.972017,16.2886719 C175.972017,17.2626163 175.646122,17.9205287 175.420728,18.2594828 C174.519639,19.6109099 172.996521,19.6455369 171.705139,19.6455369 L169.65854,19.6455369 L169.65854,19.6455369 Z" id="Fill-4" fill="#000"></path>
                <path d="M74.2547073,4.18644915 L59.7914243,4.18644915 L59.7914243,39.2611288 L71.4519156,39.2611288 L71.4519156,25.3001207 L78.5157311,39.2611288 L91.6837291,39.2611288 L83.130458,25.1108916 C84.3228031,24.6768353 85.2043774,24.3388566 86.2615836,23.6155919 C87.8198284,22.4963117 89.8791119,20.3055464 89.8791119,15.7684383 C89.8791119,12.1657705 88.499914,10.0530378 87.6154125,8.92302815 C85.111195,5.63444164 81.4663462,4.53662046 77.4141291,4.28642842 C76.3622895,4.18644915 75.306059,4.18644915 74.2547073,4.18644915 Z M71.4519156,19.8319861 L71.4519156,13.2689564 L73.4472886,13.2689564 C75.5446256,13.2689564 77.7644171,13.6805784 77.7644171,16.475121 C77.7644171,17.4490654 77.4390103,18.1069778 77.2131282,18.4459319 C76.3120393,19.7973591 74.7884329,19.8319861 73.4975388,19.8319861 L71.4519156,19.8319861 L71.4519156,19.8319861 Z" id="Fill-5" fill="#000"></path>
                <polyline id="Fill-6" fill="#000" points="30.294055 4.18644915 30.294055 14.3287367 37.3617734 14.3287367 37.3617734 39.2611288 49.9316474 39.2611288 49.9316474 14.3287367 57.0501039 14.3287367 57.0501039 4.18644915 30.294055 4.18644915"></polyline>
                <polyline id="Fill-7" fill="#000" points="132 39.0746796 155.725912 39.0746796 155.725912 29.6893083 143.559503 29.6893083 143.559503 25.8013339 154.464289 25.8013339 154.464289 16.8700148 143.559503 16.8700148 143.559503 13.3853713 155.37416 13.3853713 155.37416 4 132 4 132 39.0746796"></polyline>
                <path d="M24.9807036,4.8394845 C22.2184049,3.75580672 18.9867788,3.03546826 16.0010374,3.03546826 C10.6574383,3.03546826 5.28115219,5.08138557 2.82133054,10.0974188 C2.37786012,10.984552 1.53726656,12.9100065 1.53726656,15.6265165 C1.53726656,21.7993831 6.07100765,23.9023617 8.16395387,24.6495239 C9.56705722,25.1001622 11.8736889,25.6005462 13.3772927,25.8507383 L14.1993473,26.0253362 C15.2043518,26.2716266 16.1786207,26.7568919 16.1786207,27.9917578 C16.1786207,29.3363571 14.7979592,30.4405184 12.5176723,30.4405184 C9.35825046,30.4405184 6.31835584,28.4204494 3.90634509,26.7510394 L0,35.9900996 C4.65717125,38.4266676 8.90892564,39.8766109 14.2847239,39.8766109 C18.475495,39.8766109 21.834942,38.9333919 24.9533831,36.1632345 C28.5616419,32.8517259 29.0007215,29.2066279 29.0007215,27.2855627 C29.0007215,24.9133716 28.3684469,20.2675055 22.5672293,18.0069985 C21.061674,17.4554056 18.4584197,16.8560177 16.9026142,16.5048709 L16.053239,16.3331992 C15.064822,16.103003 14.0061523,15.647 14.0061523,14.4150603 C14.0061523,13.049002 15.2224028,12.3710938 17.2089942,12.3198849 C20.0108101,12.3198849 22.3267112,13.6196154 24.6001679,14.9700672 L28.1640309,6.27723521 C27.3800298,5.9007279 26.3272145,5.36766768 24.9807036,4.8394845" id="Fill-8" fill="#000"></path>
            </g>
        </g>
    </g>
</svg>

<svg xmlns="http://www.w3.org/2000/svg" xmlns:xlink="http://www.w3.org/1999/xlink" width="190" height="40" viewBox="0 0 190 40"><title>STROEER-white-cmyk</title><defs><path id="a" d="M0 0h38.065v40H0z"/></defs><g fill="none" fill-rule="evenodd"><g transform="translate(91.452)"><mask id="b" fill="#fff"><use xlink:href="#a"/></mask><path fill="#000" d="m10.892 0-2.22 5.758-.523.314A17.88 17.88 0 0 0 .547 17.004 21 21 0 0 0 0 21.684c0 7.961 4.372 14.365 11.881 17.05a22.5 22.5 0 0 0 7.581 1.295c10.803 0 18.603-7.7 18.603-18.496 0-2.296-.349-4.139-.547-4.928-1.49-5.71-5.613-9.038-7.252-10.131l-1.206-.762L31.26 0h-8.53l-1.271 3.295a21 21 0 0 0-2.6-.107l-.66.003L19.422 0zm5.214 15.126a6.4 6.4 0 0 1 2.899-.685c2.851-.053 5.169 1.634 6.167 4.26.218.49.526 1.48.526 2.933 0 4.077-2.515 5.973-3.894 6.61-.543.271-1.44.583-2.847.583-4.077 0-6.538-3.294-6.59-7.09 0-3.968 2.359-5.92 3.739-6.61" mask="url(#b)"/></g><path fill="#000" d="M172.462 4H158v35.075h11.659V25.114l7.064 13.96h13.168l-8.553-14.15c1.194-.434 2.074-.772 3.132-1.495 1.557-1.12 3.617-3.31 3.617-7.847 0-3.603-1.38-5.715-2.264-6.845-2.504-3.289-6.15-4.387-10.2-4.637-1.054-.1-2.11-.1-3.161-.1m-2.803 15.646v-6.563h1.995c2.098 0 4.318.411 4.318 3.206 0 .974-.326 1.632-.551 1.97-.901 1.352-2.424 1.387-3.716 1.387zM74.255 4.186H59.79v35.075h11.66v-13.96l7.065 13.96h13.168l-8.554-14.15c1.193-.434 2.074-.772 3.132-1.495 1.558-1.12 3.617-3.31 3.617-7.848 0-3.602-1.38-5.715-2.264-6.845-2.504-3.289-6.149-4.386-10.2-4.637-1.053-.1-2.109-.1-3.16-.1m-2.803 15.646v-6.563h1.995c2.098 0 4.317.412 4.317 3.206 0 .974-.325 1.632-.55 1.97-.902 1.352-2.426 1.387-3.716 1.387zM30.294 4.186V14.33h7.068V39.26h12.57V14.33h7.118V4.186zM132 39.075h23.726v-9.386H143.56v-3.888h10.904V16.87H143.56v-3.485h11.814V4H132zM24.98 4.84c-2.762-1.084-5.993-1.805-8.979-1.805-5.344 0-10.72 2.046-13.18 7.062-.443.888-1.284 2.813-1.284 5.53 0 6.172 4.534 8.275 6.627 9.023 1.403.45 3.71.95 5.213 1.2l.822.175c1.005.247 1.98.732 1.98 1.967 0 1.344-1.381 2.449-3.661 2.449-3.16 0-6.2-2.02-8.612-3.69L0 35.991c4.657 2.436 8.909 3.886 14.285 3.886 4.19 0 7.55-.944 10.668-3.714 3.609-3.311 4.048-6.956 4.048-8.877 0-2.373-.633-7.018-6.434-9.279-1.505-.552-4.109-1.151-5.664-1.502l-.85-.172c-.988-.23-2.047-.686-2.047-1.918 0-1.366 1.216-2.044 3.203-2.095 2.802 0 5.118 1.3 7.391 2.65l3.564-8.693c-.784-.376-1.837-.91-3.183-1.438"/></g></svg>
